src/categories-icons-sprite/categories/svg-cat-sport-welness.svg

<svg width="32" height="32" viewBox="0 0 32 32" fill="none" xmlns="http://www.w3.org/2000/svg">
<path class="p-4A696F" d="M12.7207 11.3245L14.0466 9.99878L22.0015 17.9537L20.6758 19.2794L12.7207 11.3245Z" fill="#5FBEFF"/>
<path class="p-384949" d="M20.6748 19.2801L16.6973 15.3025L18.0232 13.9766L22.0005 17.9541L20.6748 19.2801Z" fill="#4D98CB"/>
<path class="p-C6E2E7" d="M28.6852 12.5953L19.0841 22.1967L5.77271 27.447L4.55273 26.2272L10.0684 12.6507L19.4044 3.3147L20.7303 4.64039L11.5269 13.8438L7.11184 24.8881L18.1561 20.473L27.3595 11.2696L28.6852 12.5953Z" fill="#A1D1FD"/>
<path class="p-A8D3D8" d="M28.6855 12.595L19.0843 22.1964L5.77295 27.4467L5.16309 26.8368L7.11208 24.8878L18.1563 20.4727L27.3598 11.2693L28.6855 12.595Z" fill="#65B3E7"/>
<path class="p-979FEF" d="M18.7418 3.97745C18.0096 3.24522 18.0096 2.05805 18.7418 1.32583C19.4741 0.593596 20.6612 0.593602 21.3935 1.32584L30.6741 10.6066C31.4063 11.3389 31.4063 12.526 30.6741 13.2583C29.9418 13.9905 28.7546 13.9905 28.0224 13.2583L18.7418 3.97745Z" fill="#5FBEFF"/>
<path class="p-7984EB" d="M23.3828 8.6177L26.0344 5.96606L30.6748 10.6066C31.407 11.3388 31.407 12.526 30.6748 13.2582C29.9425 13.9904 28.7553 13.9904 28.0231 13.2582L23.3828 8.6177Z" fill="#4D98CB"/>
<path class="p-4A696F" d="M6.09111 25.9089C4.99076 24.8083 3.21414 24.8083 2.11354 25.9089L0 28.0225L3.97732 32.0001L6.09111 29.8863C7.1917 28.7859 7.1917 27.0093 6.09111 25.9089Z" fill="#65B3E7"/>
<path class="p-384949" d="M6.09085 29.8863L3.97707 32L1.98828 30.0113L6.09085 25.9087C7.19145 27.0093 7.19145 28.7859 6.09085 29.8863Z" fill="#4D98CB"/>
</svg>

<svg width="32" height="32" fill="none" xmlns="http://www.w3.org/2000/svg"><path class="p-4A696F" d="M12.72 11.325l1.327-1.326L22 17.954l-1.325 1.325-7.955-7.954z" fill="#5FBEFF"/><path class="p-384949" d="M20.675 19.28l-3.978-3.978 1.326-1.325L22 17.954l-1.325 1.326z" fill="#4D98CB"/><path class="p-C6E2E7" d="M28.685 12.595l-9.6 9.602-13.312 5.25-1.22-1.22 5.515-13.576 9.336-9.336L20.73 4.64l-9.203 9.204-4.415 11.044 11.044-4.415 9.204-9.203 1.325 1.325z" fill="#A1D1FD"/><path class="p-A8D3D8" d="M28.686 12.595l-9.602 9.601-13.311 5.25-.61-.61 1.95-1.948 11.043-4.415 9.204-9.204 1.326 1.326z" fill="#65B3E7"/><path class="p-979FEF" d="M18.742 3.977a1.875 1.875 0 012.651-2.651l9.281 9.28a1.875 1.875 0 01-2.652 2.652l-9.28-9.28z" fill="#5FBEFF"/><path class="p-7984EB" d="M23.383 8.618l2.651-2.652 4.64 4.64a1.875 1.875 0 11-2.65 2.652l-4.641-4.64z" fill="#4D98CB"/><path class="p-4A696F" d="M6.091 25.909a2.809 2.809 0 00-3.977 0L0 28.023 3.977 32l2.114-2.114c1.1-1.1 1.1-2.877 0-3.977z" fill="#65B3E7"/><path class="p-384949" d="M6.09 29.886L3.978 32l-1.989-1.989 4.103-4.102c1.1 1.1 1.1 2.877 0 3.977z" fill="#4D98CB"/></svg>
